usr/share/icons/biglinux-icons-material/scalable/mimetypes/application-msoutlook.svg

<svg width="24" height="24" viewBox="0 0 24 24" fill="none" xmlns="http://www.w3.org/2000/svg">
<rect x="1" y="1" width="22" height="22" rx="6.6" fill="url(#paint0_radial_3_1269)"/>
<path opacity="0.75" d="M11.667 5.00007L5.30349 9.77403C5.2898 9.78294 5.27739 9.79394 5.26443 9.8038L5.25699 9.80938V9.81031C5.10179 9.93217 5.00028 10.1195 5.00028 10.333V16.1423C5.00028 17.0947 5.75131 17.0947 5.95269 17.0947H17.3816C17.3816 17.0947 18.334 17.0947 18.334 16.1423V10.333C18.334 10.1147 18.2284 9.92342 18.0671 9.80197L18.0699 9.79825L11.667 5.00007ZM11.667 8.04702C12.2985 8.04702 12.9041 8.29788 13.3507 8.74441C13.7972 9.19094 14.0481 9.79656 14.0481 10.4281V10.9043V11.1424C14.0481 11.5381 13.7295 11.8567 13.3338 11.8567C13.0419 11.8567 12.7928 11.6823 12.6818 11.4326C12.549 11.5668 12.391 11.6734 12.2169 11.7462C12.0427 11.819 11.8558 11.8565 11.667 11.8567C11.2881 11.8567 10.9248 11.7062 10.6568 11.4382C10.3889 11.1703 10.2384 10.8069 10.2384 10.4281C10.2384 10.0492 10.3889 9.68579 10.6568 9.41787C10.9248 9.14995 11.2881 8.99944 11.667 8.99944C12.0459 8.99944 12.4093 9.14995 12.6772 9.41787C12.9451 9.68579 13.0956 10.0492 13.0956 10.4281V10.9043V11.1424C13.0956 11.2743 13.2018 11.3805 13.3338 11.3805C13.4657 11.3805 13.5719 11.2743 13.5719 11.1424V10.9043V10.4281C13.5719 9.92286 13.3712 9.43836 13.0139 9.08114C12.6567 8.72392 12.1722 8.52323 11.667 8.52323C11.1618 8.52323 10.6773 8.72392 10.3201 9.08114C9.96289 9.43836 9.76221 9.92286 9.76221 10.4281C9.76221 10.9332 9.96289 11.4177 10.3201 11.775C10.6773 12.1322 11.1618 12.3329 11.667 12.3329H12.6194H13.3338C13.4657 12.3329 13.5719 12.4391 13.5719 12.571C13.5719 12.7029 13.4657 12.8091 13.3338 12.8091H12.6194H11.667C11.0355 12.8091 10.4299 12.5582 9.98339 12.1117C9.53686 11.6652 9.286 11.0595 9.286 10.4281C9.286 9.79656 9.53686 9.19094 9.98339 8.74441C10.4299 8.29788 11.0355 8.04702 11.667 8.04702ZM11.667 9.47564C11.4144 9.47564 11.1722 9.57598 10.9936 9.7546C10.815 9.93321 10.7146 10.1755 10.7146 10.4281C10.7146 10.6806 10.815 10.9229 10.9936 11.1015C11.1722 11.2801 11.4144 11.3805 11.667 11.3805C11.9196 11.3805 12.1619 11.2801 12.3405 11.1015C12.5191 10.9229 12.6194 10.6806 12.6194 10.4281C12.6194 10.1755 12.5191 9.93321 12.3405 9.7546C12.1619 9.57598 11.9196 9.47564 11.667 9.47564Z" fill="white"/>
<path d="M7.14293 6.61822C6.7472 6.61822 6.42862 6.93712 6.42862 7.33252V14.4766C6.42862 14.872 6.7472 15.1899 7.14293 15.1899H16.1908C16.5866 15.1899 16.9051 14.872 16.9051 14.4766V7.33252C16.9051 6.93712 16.5866 6.61822 16.1908 6.61822H7.14293ZM11.6669 8.04683C12.2984 8.04683 12.904 8.29769 13.3505 8.74422C13.7971 9.19075 14.0479 9.79637 14.0479 10.4279V10.9041V11.1422C14.0479 11.5379 13.7293 11.8565 13.3336 11.8565C13.0417 11.8565 12.7927 11.6821 12.6816 11.4324C12.5489 11.5666 12.3909 11.6732 12.2167 11.746C12.0425 11.8188 11.8557 11.8563 11.6669 11.8565C11.288 11.8565 10.9246 11.706 10.6567 11.438C10.3888 11.1701 10.2383 10.8068 10.2383 10.4279C10.2383 10.049 10.3888 9.6856 10.6567 9.41768C10.9246 9.14976 11.288 8.99925 11.6669 8.99925C12.0458 8.99925 12.4092 9.14976 12.6771 9.41768C12.945 9.6856 13.0955 10.049 13.0955 10.4279V10.9041V11.1422C13.0955 11.2741 13.2017 11.3803 13.3336 11.3803C13.4655 11.3803 13.5717 11.2741 13.5717 11.1422V10.9041V10.4279C13.5717 9.92267 13.371 9.43817 13.0138 9.08095C12.6566 8.72373 12.1721 8.52304 11.6669 8.52304C11.1617 8.52304 10.6772 8.72373 10.32 9.08095C9.96275 9.43817 9.76206 9.92267 9.76206 10.4279C9.76206 10.9331 9.96275 11.4176 10.32 11.7748C10.6772 12.132 11.1617 12.3327 11.6669 12.3327H12.6193H13.3336C13.4655 12.3327 13.5717 12.4389 13.5717 12.5708C13.5717 12.7027 13.4655 12.8089 13.3336 12.8089H12.6193H11.6669C11.0354 12.8089 10.4298 12.558 9.98324 12.1115C9.53671 11.665 9.28585 11.0594 9.28585 10.4279C9.28585 9.79637 9.53671 9.19075 9.98324 8.74422C10.4298 8.29769 11.0354 8.04683 11.6669 8.04683ZM11.6669 9.47545C11.4143 9.47545 11.172 9.57579 10.9934 9.75441C10.8148 9.93302 10.7145 10.1753 10.7145 10.4279C10.7145 10.6805 10.8148 10.9227 10.9934 11.1013C11.172 11.2799 11.4143 11.3803 11.6669 11.3803C11.9195 11.3803 12.1617 11.2799 12.3403 11.1013C12.519 10.9227 12.6193 10.6805 12.6193 10.4279C12.6193 10.1753 12.519 9.93302 12.3403 9.75441C12.1617 9.57579 11.9195 9.47545 11.6669 9.47545Z" fill="white"/>
<path d="M5 10.3331L17.6671 19L5.95241 18.9999C5.47621 18.9999 5 18.7618 5 18.0475V10.3331Z" fill="#E8EBF0"/>
<path d="M17.3814 19C18.3338 19 18.3338 18.0476 18.3338 18.0476L18.3338 10.3331L5.66669 19H17.3814Z" fill="#F2F2FA"/>
<defs>
<radialGradient id="paint0_radial_3_1269" cx="0" cy="0" r="1" gradientUnits="userSpaceOnUse" gradientTransform="translate(17.5 1) rotate(116.565) scale(24.5967)">
<stop stop-color="#92A0C8"/>
<stop offset="1" stop-color="#4E629A"/>
</radialGradient>
</defs>
</svg>

<svg xmlns="http://www.w3.org/2000/svg" width="24" height="24" fill="none"><rect width="22" height="22" x="1" y="1" fill="url(#a)" rx="6.6"/><path fill="#fff" d="M11.667 5 5.303 9.774l-.039.03-.007.005v.001a.663.663 0 0 0-.257.523v5.81c0 .952.751.952.953.952h11.429s.952 0 .952-.953v-5.809a.663.663 0 0 0-.267-.531l.003-.004L11.667 5Zm0 3.047a2.381 2.381 0 0 1 2.381 2.381v.714a.713.713 0 0 1-1.366.29 1.43 1.43 0 0 1-2.025.006 1.429 1.429 0 1 1 2.439-1.01v.714a.238.238 0 1 0 .476 0v-.714a1.905 1.905 0 1 0-1.905 1.905H13.334a.238.238 0 1 1 0 .476H11.667a2.381 2.381 0 0 1 0-4.762Zm0 1.429a.952.952 0 1 0 0 1.904.952.952 0 0 0 0-1.904Z" opacity=".75"/><path fill="#fff" d="M7.143 6.618a.713.713 0 0 0-.714.715v7.144c0 .395.318.713.714.713h9.048a.712.712 0 0 0 .714-.713V7.333a.713.713 0 0 0-.714-.715H7.143Zm4.524 1.429a2.38 2.38 0 0 1 2.38 2.38v.715a.713.713 0 0 1-1.365.29 1.428 1.428 0 1 1 .413-1.004v.714a.238.238 0 1 0 .477 0v-.714a1.905 1.905 0 1 0-1.905 1.905H13.334a.238.238 0 1 1 0 .476H11.667a2.381 2.381 0 0 1 0-4.762Zm0 1.428a.952.952 0 1 0 0 1.905.952.952 0 0 0 0-1.905Z"/><path fill="#E8EBF0" d="M5 10.333 17.667 19H5.952C5.476 19 5 18.762 5 18.047v-7.714Z"/><path fill="#F2F2FA" d="M17.381 19c.953 0 .953-.952.953-.952v-7.715L5.667 19H17.38Z"/><defs><radialGradient id="a" cx="0" cy="0" r="1" gradientTransform="rotate(116.565 8.441 5.908) scale(24.5967)" gradientUnits="userSpaceOnUse"><stop stop-color="#92A0C8"/><stop offset="1" stop-color="#4E629A"/></radialGradient></defs></svg>
